!!!!SEGMENT: pl-wn--mus-iii-86-03_zelenski-wladyslaw--zyczenie.krn
!!!cenid: 18xx:3771
!!!COM: Żeleński, Władysław
!!!COM-rismID: pe41024455
!!!CDT:
!!!CNT:
!!!OTL: Życzenie
!!!PDT:
!!!AGN:
!!!SMS-siglum: PL-Wn
!!!SMS-shelfmark: Mus.III.86.03
!!!SMS-shelfwork: W
!!!SMS-variant:
!!!SMS-altvar:
!!!NIFC-rismSourceID:
!!!NIFC-islandoraID:
!!!URL-pdf-islandora:
!!!URL-scan: https://polona.pl/item/zyczenie,NzQ2OTgyMDc/0/#info:metadata @EN{Scan on Polona} @PL{Skany w portalu Polona}
!!!ONB-nifc:
!!!AIN: 1 piano
!!!key: A-
**kern	**text	**kern	**dynam	**kern	**text	**dynam
*part2	*part2	*part2	*part2	*part1	*part1	*part1
*staff3	*staff3	*staff2	*	*staff1	*staff1	*
*I"Fortepian.	*I"Fortepian.	*	*	*I"Śpiew.	*	*
*I'pf	*	*I'pf	*	*I'V	*	*
*Ipiano	*	*Ipiano	*	*	*	*
*ICklav	*	*ICklav	*	*ICvox	*	*
*clefF4	*	*clefG2	*	*clefG2	*	*
*k[b-e-a-d-]	*	*k[b-e-a-d-]	*	*k[b-e-a-d-]	*	*
*A-:	*	*A-:	*	*A-:	*	*
*M2/4	*	*M2/4	*	*M2/4	*	*
*MM72	*	*MM72	*	*MM72	*	*
=1	=1	=1	=1	=1	=1	=1
*ped	*	*	*	*	*	*
!	!	!	!LO:DY:b	!LO:TX:a:B:t=Andantino, quasi Allegretto. [quarter] = 72.	!	!
8AA-/	.	4r	pp	2r	.	.
4E-'\ 4A- [4c	.	.	.	.	.	.
.	.	(4aa-\	<	.	.	.
8E-'\ 8A- 8c]	.	.	.	.	.	.
*Xped	*	*	*	*	*	*
=2	=2	=2	=2	=2	=2	=2
8BB-/	.	4gg\	.	2r	.	.
(4E-'\ 4G 4d-	.	.	.	.	.	.
.	.	4ff\	.	.	.	.
8E-'\) 8G 8d-	.	.	.	.	.	.
=3	=3	=3	=3	=3	=3	=3
*ped	*	*	*	*	*	*
8C/	.	4ee-\)	.	2r	.	.
(4E-'\ 4A- 4e-	.	.	.	.	.	.
.	.	([4a-/	.	.	.	.
8E-'\) 8A- 8e-	.	.	[	.	.	.
*Xped	*	*	*	*	*	*
=4	=4	=4	=4	=4	=4	=4
!LO:TX:b:i:t=simile	!	!	!	!	!	!
8F\	.	4a-/]	.	2r	.	.
4A-\ 4e-	.	.	.	.	.	.
.	.	[4b-\	.	.	.	.
8A-\ 8dn	.	.	.	.	.	.
=5	=5	=5	=5	=5	=5	=5
8E-\	.	4b-\]	>	2r	.	.
4A-\ 4d-X	.	.	.	.	.	.
.	.	[4e-/	.	.	.	.
8G\ 8d-	.	.	]]	.	.	.
!!LO:LB:g=original
=6	=6	=6	=6	=6	=6	=6
8E-\	.	4e-/])	.	4r	.	.
4F\ 4d-	.	.	.	.	.	.
!	!	!	!	!	!	!LO:DY:a
.	.	[4e-/	.	8e-/	Gdy-	p
8G\ 8d-	.	.	.	8e-/	-bym	.
=7	=7	=7	=7	=7	=7	=7
*^	*	*	*	*	*	*
!LO:TX:b:i:t=con Pedale	!	!	!	!	!	!	!
!LO:N:vis=2	!	!	!	!	!	!	!
8AA-/	2AA-\	.	8e-/]	pp	(4e-/	się	.
(<4E-/ 4A-	.	.	[4c/ 4e-	.	.	.	.
.	.	.	.	.	8a-/)	.	.
8E-'/) 8A-	.	.	8c'/] 8e-	.	8a-/	zmie-	.
=8	=8	=8	=8	=8	=8	=8	=8
!LO:N:vis=2	!	!	!	!	!	!	!
8BB-/	2BB-\	.	8r	.	(8g/L	-ni-	.
(<4E-/ 4G	.	.	[4d-/ [4e-	.	8f/J)	.	.
.	.	.	.	.	8e-/	-ła	.
8E-'/) 8G	.	.	8d-/] 8e-]	.	8e-/	wgwiaz-	.
=9	=9	=9	=9	=9	=9	=9	=9
!LO:N:vis=2	!	!	!	!	!	!	!LO:DY:a
8BB-/	2BB-\	.	8r	.	(8e-/L	-decz-	<
4A-/	.	.	4c/ 4e-	.	8cc/J)	.	.
.	.	.	.	.	8cc\	-kę	.
8B-/	.	.	8c/ 8en	.	8b-\	na	[[
=10	=10	=10	=10	=10	=10	=10	=10
!LO:N:vis=2	!	!	!	!	!	!	!LO:DY:a
8F/	2F\	.	8r	.	4b-\	nie-	>
4B-/	.	.	4c/ 4en	.	.	.	.
.	.	.	.	.	8a-/	-bie	]]
8A-/	.	.	8c/ 8f	.	8r	.	.
!!LO:LB:g=original
=11	=11	=11	=11	=11	=11	=11	=11
!LO:N:vis=2	!	!	!	!	!	!	!LO:DY:a
8F/	2F\	.	8r	<	8a-/	Ciąg-	<
4A-/	.	.	4c/ 4a-	.	8a-/	-le-	.
.	.	.	.	.	8a-/	-bym	.
8B-/	.	.	8dn/ 8a-	[	8a-/	świe-	[[
=12	=12	=12	=12	=12	=12	=12	=12
!LO:N:vis=2	!	!	!	!	!	!	!
8E-/	2E-\	.	8r	.	4ee-\	-ci-	.
4c/	.	.	4e-/ 4a-	.	.	.	.
.	.	.	.	.	8e-/	-ła	.
8c/	.	.	8e-/ 8a-	.	8e-/	Ro-	.
=13	=13	=13	=13	=13	=13	=13	=13
*	*	*	*^	*	*	*	*
!LO:N:vis=2	!	!	!	!	!	!	!	!
8E-/	2E-\	.	8r	8ryy	.	(8f/L	-da-	.
(<8B-/L	.	.	(8g/L	4d-X\	.	8e-/J)	.	.
8A-/)	.	.	8f/)	.	.	8f/	-kom	.
8G'/J	.	.	8e-'/J	8d-\	>	8e-/	wpo-	.
*	*	*	*v	*v	*	*	*	*
=14	=14	=14	=14	=14	=14	=14	=14
!	!	!	!	!	!	!	!LO:DY:a
!LO:N:vis=2	!	!	!	!	!	!	!
8AA-/	2AA-\	.	8r	.	4cc\	-trze-	>
4A-/	.	.	4c/ 4e-	.	.	.	.
.	.	.	.	.	8a-/	-bie	.
8A-/	.	.	8c/ 8a-	]	8r	.	]
=15	=15	=15	=15	=15	=15	=15	=15
!LO:N:vis=2	!	!	!LO:TX:b:i:t=un poco appas.	!	!	!	!
8D-/	2D-\	.	8r	.	8ff-X\	Bo	.
4B-/	.	.	4f-X/ 4a-	.	8ee-\	ża-	.
.	.	.	.	.	8dd-\	-ło-	.
8B-/	.	.	8f-/ 8a-	.	8cc-X\	-by	.
!!LO:PB:g=original
=16	=16	=16	=16	=16	=16	=16	=16
!LO:N:vis=2	!	!	!	!	!	!	!
8D-/	2D-\	.	8r	.	4b-\	chmu-	.
4B-/	.	.	4f-X/ 4a-	.	.	.	.
.	.	.	.	.	8b-\	-ry,	.
8B-/	.	.	8f-/ 8a-	.	8b-\	Ćmią	.
=17	=17	=17	=17	=17	=17	=17	=17
!LO:N:vis=2	!	!	!	!	!	!	!
8D-/	2D-\	.	8r	.	(8dd-\L	sę-	.
4c-X/	.	.	4fn/ 4a-	.	8cc-X\J)	.	.
.	.	.	.	.	8b-\L	-pne	.
8c-/	.	.	8f/ 8a-	.	8cc-\J	ich	.
=18	=18	=18	=18	=18	=18	=18	=18
!LO:N:vis=2	!	!	!	!	!	!	!
8G-X/	2G-\	.	8r	.	4dd-\	li-	.
4c-X/	.	.	4f-X/ 4g-X	.	.	.	.
.	.	.	.	.	8g-X/	-ca	.
8B-/	.	.	8f-/ 8g-	.	8g-/	O	.
=19	=19	=19	=19	=19	=19	=19	=19
!LO:N:vis=2	!	!	!	!	!	!	!
8C-X/	2C-\	.	8r	<	(8ee-\L	niech	.
4G-X/	.	.	4e-/ 4g-X	.	8dd-\J)	.	.
.	.	.	.	.	8cc-X\	im	.
8G-/	.	.	8d-/ 8f-X	.	8b-\	choć-	.
=20	=20	=20	=20	=20	=20	=20	=20
!LO:N:vis=2	!	!	!	!	!	!	!
8C-X/	2C-\	.	8r	.	4a-/	z gó-	.
4A-/	.	.	4c-X/ 4e-	.	.	.	.
.	.	.	.	.	8a-/	-ry	.
8A-/	.	.	8c-/ 8e-	.	8a-/	Lśni	.
!!LO:LB:g=original
=21	=21	=21	=21	=21	=21	=21	=21
!LO:N:vis=2	!	!	!	!	!	!	!LO:DY:a
8F-X/	2F-\	.	8r	>	(8b-/L	mo-	>
4B-/	.	.	4dn/ 4a-	.	8a-/J)	.	.
.	.	.	.	.	8g/	-ja	.
8B-/	.	.	8d/ 8a-	]]	8a-/	źre-	]]
=22	=22	=22	=22	=22	=22	=22	=22
!LO:N:vis=2	!	!	!	!	!	!	!
8E-/	2E-\	.	8r	.	4b-\	-ni-	.
4B-/	.	.	4d-X/ 4a-	.	.	.	.
.	.	.	.	.	[4e-/	-ca_	.
8B-/	.	.	8d-/ 8g	.	.	.	.
=23	=23	=23	=23	=23	=23	=23	=23
!LO:N:vis=2	!	!	!	!	!	!	!
8E-/	2E-\	.	8r	pp	8e-/]	.	.
(<8A-/L	.	.	(8d-/L 8f	.	8r	.	.
!	!	!	!	!	!	!	!LO:DY:a
8G/J)	.	.	8d-/J) 8e-	.	8e-/	Bła-	pp
8A-/	.	.	8d-/ 8e-	.	8e-/	-gam	.
=24	=24	=24	=24	=24	=24	=24	=24
!LO:N:vis=2	!	!	!	!	!	!	!
8AA-/	2AA-\	.	8r	.	(4e-/	cię_	.
4A-/	.	.	4c/ 4e-	.	.	.	.
.	.	.	.	.	8a-/)	.	.
8A-/	.	.	8c/ 8e-	.	8a-/	-wpo-	.
=25	=25	=25	=25	=25	=25	=25	=25
!LO:N:vis=2	!	!	!	!	!	!	!
8BB-/	2BB-\	.	8r	.	(8g/L	-ko-	.
4G/	.	.	4d-/ 4e-	.	8f/J)	.	.
.	.	.	.	.	8e-/	-rze,	.
8G/	.	.	8d-/ 8e-	.	8e-/	Weź	.
=26	=26	=26	=26	=26	=26	=26	=26
!LO:N:vis=2	!	!	!	!	!	!	!LO:DY:a
8C/	2C\	.	8r	.	(8e-/L	mię	<
4A-/	.	.	4c/ 4e-	.	8cc/J)	.	.
.	.	.	.	.	8cc\	weź	.
8B-/	.	.	8c/ 8en	.	8b-\	do	[[
!!LO:LB:g=original
=27	=27	=27	=27	=27	=27	=27	=27
!LO:N:vis=2	!	!	!	!	!	!	!LO:DY:a
8F/	2F\	.	8r	.	4b-\	sie-	>
4B-/	.	.	4c/ 4en	.	.	.	.
.	.	.	.	.	8a-/	-bie,	.
8A-/	.	.	8c/ 8f	.	8a-/	Bra-	]]
=28	=28	=28	=28	=28	=28	=28	=28
!LO:N:vis=2	!	!	!	!	!LO:TX:a:i:t=molto espress.	!	!
8C/	2C\	.	8r	.	4a-/	-cisz-	.
4A-/	.	.	4e-/ 4g-X 4a-	.	.	.	.
.	.	.	.	.	8a-/	-kom	.
8A-/	.	.	8e-/ 8g- 8a-	.	8a-/	mój	.
=29	=29	=29	=29	=29	=29	=29	=29
!LO:N:vis=2	!	!	!	!	!	!	!
8Dn/	2D\	.	8r	.	(4ff\	Bo-	.
4B-/	.	.	4f/ 4a-	.	.	.	.
.	.	.	.	.	8g/)	-że	.
8B-/	.	.	8f/ 8a-	.	8a-/	za	.
=30	=30	=30	=30	=30	=30	=30	=30
*	*	*	*^	*	*	*	*
!LO:N:vis=2	!	!	!	!	!	!	!	!
8E-/	2E-\	.	8r	8ryy	.	(8b-/L	świe-	.
(<8B-/L	.	.	(8g/L	4d-X\	.	8e-/J)	.	.
8A-/J)	.	.	8f/J)	.	.	8f/	-cę	.
8G'/	.	.	8d-'/ 8e-	8ryy	.	8e-/	na	.
*	*	*	*v	*v	*	*	*	*
=31	=31	=31	=31	=31	=31	=31	=31
!LO:N:vis=2	!	!	!	!	!	!	!
8AA-/	2AA-\	.	8r	.	4cc\	nie-	.
!	!	!	!	!LO:DY:a	!	!	!
4A-/	.	.	4c/ 4e-	>	.	.	.
.	.	.	.	.	8a-/	-bie	.
!	!	!	!	!	!	!	!LO:DY:a
8A-/	.	.	8c/ 8e-	]]	8a-/	Bra	pp
!!LO:LB:g=original
=32	=32	=32	=32	=32	=32	=32	=32
!LO:N:vis=2	!	!	!	!	!	!	!
8C/	2C\	.	8r	.	4a-/	cisz-	.
4A-/	.	.	4g-X/ 4a-	pp	.	.	.
.	.	.	.	.	8a-/	-kom	.
8A-/	.	.	8g-/ 8a-	.	8a-/	mój	.
=33	=33	=33	=33	=33	=33	=33	=33
!LO:N:vis=2	!	!	!	!	!	!	!
8Dn/	2D\	.	8r	.	(4ff\	Bo-	.
4B-/	.	.	4f/ 4a-	.	.	.	.
.	.	.	.	.	8g/)	-że	.
8B-/	.	.	8f/ 8a-	.	8a-/	za-	.
=34	=34	=34	=34	=34	=34	=34	=34
*	*	*	*^	*	*	*	*
!LO:N:vis=2	!	!	!	!	!	!	!	!LO:DY:a
8E-/	2E-\	.	8r	8ryy	.	8b-/L	-świe-	<
(<8B-/L	.	.	(8g/L	4d-X\	<	8e-/J	.	.
8A-/J)	.	.	8f/J)	.	.	8f/	-cę	.
8G'/	.	.	8d-'/ 8e-	8ryy	[	8e-/	na	[[
*	*	*	*v	*v	*	*	*	*
=35	=35	=35	=35	=35	=35	=35	=35
!LO:N:vis=2	!	!	!	!	!	!	!LO:DY:a
8E-/	2E-\	.	8r	>	2cc\	nie-	>]
4F/	.	.	4e-/ 4f	.	.	.	.
8G/	.	.	(8e-/ 8f	]]	.	.	.
*v	*v	*	*	*	*	*	*
=36	=36	=36	=36	=36	=36	=36
*ped	*	*	*	*	*	*
8AA-/	.	8c/) 8e-	.	4a-/	-bie.	.
4E-\ 4A- 4c	.	8r	.	.	.	.
.	.	(4aa-\	.	4r	.	.
8E-\ 8A- 8c	.	.	.	.	.	.
*Xped	*	*	*	*	*	*
!!LO:PB:g=original
=37	=37	=37	=37	=37	=37	=37
8BB-/	.	4gg\	<	2r	.	.
4E-\ 4G 4d-	.	.	.	.	.	.
.	.	4ff\	.	.	.	.
8E-\ 8G 8d-	.	.	.	.	.	.
=38	=38	=38	=38	=38	=38	=38
*ped	*	*	*	*	*	*
8C/	.	4ee-\)	.	2r	.	.
4E-\ 4A- 4e-	.	.	.	.	.	.
.	.	([4a-/	[[	.	.	.
8E-\ 8A- 8e-	.	.	.	.	.	.
*Xped	*	*	*	*	*	*
=39	=39	=39	=39	=39	=39	=39
8F\	.	4a-/]	.	2r	.	.
4A-\ 4e-	.	.	.	.	.	.
.	.	[4b-\	.	.	.	.
8A-\ 8dn	.	.	.	.	.	.
=40	=40	=40	=40	=40	=40	=40
8E-\	.	4b-\]	>	2r	.	.
4A-\ 4d-X	.	.	.	.	.	.
.	.	[4e-/	.	.	.	.
8G\ 8d-	.	.	.	.	.	.
=41	=41	=41	=41	=41	=41	=41
8E-\	.	4e-/])	.	4r	.	.
4F\ 4d-	.	.	.	.	.	.
!	!	!	!	!	!	!LO:DY:a
.	.	[4e-/	]]	4e-/	I	p
8G\ 8d-	.	.	.	.	.	.
=42	=42	=42	=42	=42	=42	=42
8AA-/	.	8e-/]	.	4e-/	o-	.
4E-\ 4A- 4c	.	8r	>	.	.	.
.	.	(4a-/	.	8a-/	-tocz	.
8E-\ 8A- 8c	.	.	]]	8a-/	me	.
!!LO:LB:g=original
=43	=43	=43	=43	=43	=43	=43
8BB-/	.	4g/)	.	8g/L	skro-	.
4E-\ 4G 4d-	.	.	.	8f/J	.	.
.	.	4r	.	8e-/	-nie,	.
8E-\ 8G 8d-	.	.	.	8e-/	Na-	.
=44	=44	=44	=44	=44	=44	=44
!	!	!	!	!	!	!LO:DY:a
8C/	.	4r	.	8e-/L	-dzie-	<
4E-\ 4A- 4c	.	.	.	8cc/J	.	.
.	.	(4cc\	>	8cc\	-i	.
8En\ 8B- 8c	.	.	.	8b-\	ko-	[[
=45	=45	=45	=45	=45	=45	=45
!	!	!	!	!	!	!LO:DY:a
8F\	.	4f/)	.	4b-\	-ro-	>
4G\ 4B- 4c	.	.	.	.	.	.
.	.	4r	]	8a-/	-ną,	.
8A-\ 8c	.	.	.	8r	.	]
=46	=46	=46	=46	=46	=46	=46
!	!	!	!	!	!	!LO:DY:a
8F\	.	4r	<	8a-/	Nad	<
4A-\ 4d-	.	.	.	8a-/	ro-	.
!	!	!LO:TX:b:i:t=un poco	!	!	!	!
.	.	(4dd-\	.	8a-/	-dzin-	.
8A-\ 8d-	.	.	.	8a-/	-ne	.
=47	=47	=47	=47	=47	=47	=47
8E-\	.	4cc\)	.	4ee-\	bło-	.
4A-\ 4c	.	.	.	.	.	.
.	.	4r	.	8e-/	-nie,	.
8A-\ 8c	.	.	.	8e-/	Niech	[
!!LO:LB:g=original
=48	=48	=48	=48	=48	=48	=48
8E-\	.	4r	.	8f/L	blas-	.
4G\ 4d-	.	.	.	8e-/J	.	.
.	.	(4ee-\	>	8f/	-ki	.
8G\ 8d-	.	.	]]	8e-/	jej	.
=49	=49	=49	=49	=49	=49	=49
8AA-/	.	4e-/)	.	4cc\	pło-	.
4E-\ 4A- 4c	.	.	.	.	.	.
.	.	4r	.	8a-/	-ną	.
8E-\ 8A- 8c	.	.	.	8a-/	Gdy	.
=50	=50	=50	=50	=50	=50	=50
!	!	!	!	!LO:TX:a:i:t=stringendo e con passione:dur=3qe:ext=s	!	!
8D-\	.	4r	.	8ff-X\L	czar-	.
4A-\ 4B- 4f-X	.	.	.	8ee-\J	.	.
.	.	(4aa-\	>	8dd-X\	-na	.
8A-\ 8B- 8f-	.	.	.	8cc-X\	za-	.
=51	=51	=51	=51	=51	=51	=51
8D-\	.	4b-\)	]	4b-\	-wie-	.
4A-\ 4B- 4f-X	.	.	.	.	.	.
.	.	4r	.	8b-\	-ja	.
8A-\ 8B- 8f-	.	.	.	8b-\	Ich	.
=52	=52	=52	=52	=52	=52	=52
8E-\	.	4r	.	(8dd-\L	ser-	.
4A-\ 4c-X 4fn	.	.	.	8cc-X\J)	.	.
.	.	(4ddd-\	>	8b-\	-ca	.
8A-\ 8c- 8f	.	.	]]	8cc-\	o-	.
!!LO:LB:g=original
=53	=53	=53	=53	=53	=53	=53
8G-X\	.	4dd-\)	.	4dd-\	-gar-	.
4c-X\ 4f-X	.	.	.	.	.	.
.	.	4r	.	8g-X/	-nie,	.
8B-\ 8f-	.	.	.	8g-/	Ja	.
=54	=54	=54	=54	=54	=54	=54
!	!	!	!	!LO:TX:a:i:t=espress.	!	!
8C-X/	.	4r	.	8ee-^\L	gwiaz-	.
4G-X\ 4e-	.	.	.	8dd-^\J	.	.
.	.	(4ee-\	>	8cc-X^\	-da	.
8Gn\ 8d-	.	.	]]	8b-^\	na-	.
=55	=55	=55	=55	=55	=55	=55
8C-X/	.	4e-/)	.	4a-^/	-dzie-	.
4A-\ 4c-X	.	.	.	.	.	.
.	.	4r	.	8a-/	-ja,	.
8A-\ 8c-	.	.	.	8a-/	zła-	.
=56	=56	=56	=56	=56	=56	=56
8F-X\	.	4r	.	(8b-/L	-go-	.
4A-\ 4dn	.	.	.	8a-/J)	.	.
.	.	(4b-\	>	8g/	-dzę	.
8A-\ 8d	.	.	.	8a-/	mę-	.
=57	=57	=57	=57	=57	=57	=57
!	!	!	!	!	!	!LO:DY:a
8E-\	.	4e-/)	]]	4b-\	-czar-	>
4A-\ 4d-X	.	.	.	.	.	.
.	.	4r	.	[4e-/	-nie	]]
[8G\ [8d-	.	.	.	.	.	.
!!LO:PB:g=original
=58	=58	=58	=58	=58	=58	=58
8G\] 8d-]	.	4r	.	4e-/]	.	.
!	!	!	!LO:HP:b:i:t=dim.	!	!	!
4G\ 4d-	.	.	>	.	.	.
.	.	[4e-/	.	8r	.	.
!	!	!	!	!	!	!LO:DY:a
8G\ 8d-	.	.	.	8e-/	Do	pp
=59	=59	=59	=59	=59	=59	=59
8AA-/	.	8e-/]	pp	4e-/	no-	.
4E-\ 4A- 4c	.	8r	.	.	.	.
.	.	(4a-/	>	8a-/	-wej	.
8E-\ 8A- 8c	.	.	.	8a-/	Ju-	.
=60	=60	=60	=60	=60	=60	=60
8BB-/	.	4g/)	]]	(8g/L	-de-	.
4E-\ 4G 4d-	.	.	.	8f/J)	.	.
.	.	4r	.	8e-/	-i	.
8E-\ 8G 8d-	.	.	.	8e-/	Roz-	.
=61	=61	=61	=61	=61	=61	=61
8C/	.	4r	.	(8e-/L	-świe-	.
!	!	!	!	!	!	!LO:DY:a
4E-\ 4A- 4c	.	.	.	8cc/J)	.	<
.	.	(4cc\	>	8cc\	-cę	.
8En\ 8B- 8c	.	.	.	8b-\	im	[[
=62	=62	=62	=62	=62	=62	=62
!	!	!	!	!	!	!LO:DY:a
8F\	.	4f/)	.	4b-\	dro-	>
4G\ 4B- 4c	.	.	.	.	.	.
.	.	4r	]	8a-/	-gę,	]
8A-\ 8c	.	.	.	8a-/	Wgwiaz	.
!!LO:LB:g=original
=63	=63	=63	=63	=63	=63	=63
8C/	.	4r	.	4a-/	decz-	.
4A-\ 4e- 4g-X	.	.	.	.	.	.
!	!	!	!	!LO:TX:a:i:t=espressivo e cresc.	!	!
.	.	(4aa-\	>	8a-/	-kę	.
8A-\ 8e- 8g-	.	.	.	8a-/	na-	.
=64	=64	=64	=64	=64	=64	=64
8Dn\	.	4b-\)	]	(4ff\	-dzie-	.
4A-\ 4B- 4f	.	.	.	.	.	.
.	.	4r	.	8g/)	.	.
8A-\ 8B- 8f	.	.	.	8a-/	-i	.
=65	=65	=65	=65	=65	=65	=65
8E-\	.	4r	.	8b-\	Bo-	.
4A-\ 4B- 4d-X	.	.	.	8e-/	-że	.
.	.	(4ee-\	>	8f/	zmień	.
8G\ 8B- 8d-	.	.	.	8e-/	nie-	.
=66	=66	=66	=66	=66	=66	=66
8AA-/	.	4e-/)	.	4cc\	-bo-	.
4E-\ 4A- 4c	.	.	.	.	.	.
!	!	!	!	!	!	!LO:DY:a
.	.	4r	]	8a-/	-gę	p
8E-\ 8A- 8c	.	.	.	8a-/	Wgwiaz-	.
=67	=67	=67	=67	=67	=67	=67
8C/	.	4r	.	4cc\	-decz-	.
!	!	!	!LO:DY:a	!	!	!
4A-\ 4e- 4g-X	.	.	>	.	.	.
.	.	(4aa-\	.	8a-/	-kę	.
8A-\ 8e- 8g-	.	.	]]	8a-/	na-	.
!!LO:LB:g=original
=68	=68	=68	=68	=68	=68	=68
8Dn\	.	4b-\)	.	(4ff\	-dzie-	.
4A-\ 4B- 4f	.	.	.	.	.	.
.	.	4r	.	8g/)	.	.
8A-\ 8B- 8f	.	.	.	8a-/	-i	.
=69	=69	=69	=69	=69	=69	=69
8E-\	.	4r	.	8b-\	Bo-	.
4A-\ 4B- 4d-X	.	.	.	8e-/	-że	.
!	!	!	!	!	!	!LO:HP:a
.	.	(4ee-\	>	8f/	zmień	<
[8G\ [8B- [8d-	.	.	]]	8e-/	nie-	[[
=70	=70	=70	=70	=70	=70	=70
!	!	!	!	!	!	!LO:HP:a
8G\] 8B-] 8d-]	.	[2e-/)	.	2cc\	-bo-	>
4G\ 4B- 4d-	.	.	.	.	.	.
8G\ 8B- 8d-	.	.	.	.	.	]
=71	=71	=71	=71	=71	=71	=71
*ped	*	*	*	*	*	*
8AA-/	.	8e-/]	.	4a-/	-gę	.
4E-\ 4A- 4c	.	8r	.	.	.	.
.	.	(4aa-\	pp	4r	.	.
8E-\ 8A- 8c	.	.	.	.	.	.
*Xped	*	*	*	*	*	*
=72	=72	=72	=72	=72	=72	=72
8BB-/	.	4gg\	.	2r	.	.
4E-\ 4G 4d-	.	.	.	.	.	.
.	.	4ff\	.	.	.	.
8E-\ 8G 8d-	.	.	.	.	.	.
!!LO:LB:g=original
=73	=73	=73	=73	=73	=73	=73
*ped	*	*	*	*	*	*
8C/	.	4ee-\)	<	2r	.	.
4E-\ 4A- 4e-	.	.	.	.	.	.
.	.	([4a-/	.	.	.	.
8E-\ 8A- 8e-	.	.	.	.	.	.
*Xped	*	*	*	*	*	*
=74	=74	=74	=74	=74	=74	=74
8F\	.	4a-/]	.	2r	.	.
4A-\ 4e-	.	.	.	.	.	.
.	.	[4b-\	[[	.	.	.
8A-\ 8dn	.	.	.	.	.	.
=75	=75	=75	=75	=75	=75	=75
8E-\	.	4b-\])	.	2r	.	.
4G-X\ 4d-	.	.	.	.	.	.
.	.	[4e-/	>	.	.	.
8G-\ 8d-	.	.	.	.	.	.
=76	=76	=76	=76	=76	=76	=76
8E-\	.	4e-/]	.	2r	.	.
4F\ 4d-	.	.	.	.	.	.
.	.	[4e-/	]]	.	.	.
8G\ 8d-	.	.	.	.	.	.
=77	=77	=77	=77	=77	=77	=77
*^	*	*^	*	*	*	*
!LO:N:vis=2	!	!	!	!LO:N:vis=2	!LO:HP:b:i:t=dim.	!	!	!
8AA-/	[2AA-\	.	2e-/_	8e-\	>	2r	.	.
4E-/	.	.	.	4A-\ 4c	.	.	.	.
[8E-/	.	.	.	[8A-\ [8c	.	.	.	.
=78	=78	=78	=78	=78	=78	=78	=78	=78
8E-/]	2AA-\]	.	2e-/]	8A-\] 8c]	.	2r	.	.
4.E-/	.	.	.	4.A-\ 4.c	.	.	.	.
*v	*v	*	*	*	*	*	*	*
*	*	*v	*v	*	*	*	*
==	==	==	==	==	==	==
*-	*-	*-	*-	*-	*-	*-
!!!RDF**kern: > = above
!!!RDF**kern: < = below
!!!system-decoration: [(s1)]{(s2,s3)}
!!!ENC: Marta Opryszak
!!!END: 2022-03-23
!!!ENC: Urszula Świątek
!!!END: 2022-03-27
